X: 30668
T: Open The Door For Three
R: slip jig
M: 9/8
K: Dmajor
A|d2g fdf ece|d2g fdf g2a|b3 agf ecA|B2g efd cBA|
d2g fdf ece|A3 fdf g2a|b3 agf ecA|B2g fge d2||
dAF dAF ecA|d3 ABc d2A|B3 AGF ecA|B2G EFD cBA|
dAF dAF ecA|d3 ABc d2A|B3 AGF ecA|B2G FGE D2||

